subparts/breadboard/tactile-pth-12mm.svg

<?xml version="1.0" encoding="UTF-8" standalone="no"?>
<!-- Generator: Adobe Illustrator 15.0.1, SVG Export Plug-In . SVG Version: 6.00 Build 0)  -->

<svg
   xmlns:dc="http://purl.org/dc/elements/1.1/"
   xmlns:cc="http://creativecommons.org/ns#"
   xmlns:rdf="http://www.w3.org/1999/02/22-rdf-syntax-ns#"
   xmlns:svg="http://www.w3.org/2000/svg"
   xmlns="http://www.w3.org/2000/svg"
   xmlns:sodipodi="http://sodipodi.sourceforge.net/DTD/sodipodi-0.dtd"
   xmlns:inkscape="http://www.inkscape.org/namespaces/inkscape"
   version="1.1"
   id="Ebene_1"
   x="0px"
   y="0px"
   width="0.5432139in"
   height="0.47244021in"
   viewBox="0 0 39.111768 34.016015"
   xml:space="preserve"
   inkscape:version="0.91 r13725"
   sodipodi:docname="tactile-pth-12mm.svg"><metadata
     id="metadata39"><rdf:RDF><cc:Work
         rdf:about=""><dc:format>image/svg+xml</dc:format><dc:type
           rdf:resource="http://purl.org/dc/dcmitype/StillImage" /><dc:title></dc:title></cc:Work></rdf:RDF></metadata><defs
     id="defs37" /><sodipodi:namedview
     pagecolor="#ffffff"
     bordercolor="#666666"
     borderopacity="1"
     objecttolerance="10"
     gridtolerance="10"
     guidetolerance="10"
     inkscape:pageopacity="0"
     inkscape:pageshadow="2"
     inkscape:window-width="1672"
     inkscape:window-height="880"
     id="namedview35"
     showgrid="false"
     inkscape:zoom="5.5503814"
     inkscape:cx="24.444625"
     inkscape:cy="21.259807"
     inkscape:window-x="386"
     inkscape:window-y="210"
     inkscape:window-maximized="0"
     inkscape:current-layer="Ebene_1"
     fit-margin-top="0"
     fit-margin-left="0"
     fit-margin-right="0"
     fit-margin-bottom="0" /><g
     id="g8143"
     transform="matrix(0,-1,1,0,-1.5258933e-6,34.016016)"><rect
       rx="2.0088189"
       y="4.9999999e-006"
       x="8.1410961"
       height="39.111759"
       width="3.4732449"
       id="rect8997"
       style="fill:#cccccc;stroke:#cccccc;stroke-width:0;stroke-miterlimit:4;stroke-dasharray:none;stroke-dashoffset:11.71939468;stroke-opacity:1" /><rect
       style="fill:#cccccc;stroke:#cccccc;stroke-width:0;stroke-miterlimit:4;stroke-dasharray:none;stroke-dashoffset:11.71939468;stroke-opacity:1"
       id="rect8999"
       width="3.4732449"
       height="39.111759"
       x="22.3361"
       y="4.9999999e-006"
       rx="2.0088189" /><g
       id="b3f-40xx-round"
       transform="matrix(1.0000093,0,0,1.0000093,0,2.6419353)"><g
         transform="matrix(0,-1,1,0,0,34.0157)"
         id="g8954"><polygon
           points="31.0307,0 2.98398,0 0,2.98398 0,31.0307 2.98398,34.0157 31.0317,34.0157 34.0157,31.0307 34.0157,2.98398 "
           id="polygon8956" /><g
           id="g8958"><path
             d="m 31.7917,29.3847 c 0,1.32799 -1.07999,2.41198 -2.41098,2.41198 l -24.74776,2e-5 c -1.32599,0 -2.40898,-1.08399 -2.40898,-2.41198 l 0,-24.75277 c 0,-1.32599 1.08299,-2.40898 2.40898,-2.40898 l 24.7518,0 c 1.32699,0 2.40697,1.08299 2.40697,2.40898 l -3e-5,24.75275 0,0 z"
             id="path8960"
             inkscape:connector-curvature="0"
             style="fill:#999999" /><circle
             cy="6.5299401"
             r="2.56198"
             cx="6.5289402"
             id="circle8962" /><circle
             cy="6.5759401"
             r="2.5609801"
             cx="27.558701"
             id="circle8964" /><circle
             cy="27.603701"
             r="2.56198"
             cx="27.512699"
             id="circle8966" /><circle
             cy="27.555799"
             r="2.56198"
             cx="6.4839401"
             id="circle8968" /><circle
             cy="17.008801"
             r="8.6239405"
             cx="17.0058"
             id="circle8970"
             style="fill:#3f3f3f" /><circle
             cy="17.008801"
             r="8.6239405"
             cx="17.0058"
             id="circle8972"
             style="fill:#2d2d2d" /><circle
             cy="18.032801"
             r="7.5879402"
             cx="17.156799"
             id="circle8974"
             style="opacity:0.6" /><circle
             cy="17.059799"
             r="7.3948998"
             cx="17.017799"
             id="circle8976"
             style="fill:#313131" /><path
             d="m 6.19794,6.39594 c 0.052,-0.119 0.143,-0.213 0.276,-0.234 l -0.254,-1.61598 c -0.097,0.016 -0.199,0.003 -0.29399,0.034 L 5.92394,4.57196 C 5.32595,4.75495 4.88095,5.20095 4.64995,5.76894 l 1.54799,0.627 z"
             id="path8978"
             inkscape:connector-curvature="0"
             style="opacity:0.5;fill:#ffffff" /><path
             d="m 27.2247,6.44094 c 0.05,-0.122999 0.141998,-0.215998 0.274998,-0.236998 L 27.2507,4.589952 c -0.101999,0.018 -0.198998,0.003 -0.297997,0.031 l -0.004,-0.009 c -0.590995,0.182998 -1.03899,0.627994 -1.26798,1.19699 L 27.2247,6.44094 Z"
             id="path8980"
             inkscape:connector-curvature="0"
             style="opacity:0.5;fill:#ffffff" /><path
             d="m 27.1817,27.4687 c 0.051,-0.124998 0.140998,-0.216998 0.274998,-0.237997 L 27.2047,25.617713 c -0.098,0.018 -0.198998,0.004 -0.293997,0.033 l -0.004,-0.014 c -0.594994,0.183998 -1.04299,0.628994 -1.26899,1.19899 L 27.1817,27.4687 Z"
             id="path8982"
             inkscape:connector-curvature="0"
             style="opacity:0.5;fill:#ffffff" /><path
             d="m 6.15194,27.4237 c 0.051,-0.122999 0.142998,-0.212998 0.276998,-0.235998 l -0.253997,-1.61498 c -0.097999,0.023 -0.198998,0.004 -0.294997,0.033 l -0.003,-0.008 c -0.596994,0.179999 -1.04199,0.626994 -1.27199,1.19699 L 6.15194,27.4237 Z"
             id="path8984"
             inkscape:connector-curvature="0"
             style="opacity:0.5;fill:#ffffff" /><path
             d="M 19.6638,10.1669 C 19.091805,9.943902 18.48881,9.783904 17.85082,9.709904 16.26184,9.533906 14.74285,9.884902 13.44386,10.604893 l -0.160998,0.420996 c 1.44999,-0.774994 3.13997,-1.13599 4.89795,-0.937994 0.541995,0.063 1.06799,0.183998 1.56699,0.343997 L 19.6638,10.1669 Z"
             id="path8986"
             inkscape:connector-curvature="0"
             style="opacity:0.6;fill:#ffffff" /></g></g></g></g></svg>

<?xml version="1.0" encoding="utf-8"?>
<!-- Generator: Adobe Illustrator 15.0.1, SVG Export Plug-In . SVG Version: 6.00 Build 0)  -->
<!DOCTYPE svg PUBLIC "-//W3C//DTD SVG 1.1 Basic//EN" "http://www.w3.org/Graphics/SVG/1.1/DTD/svg11-basic.dtd">
<svg version="1.1" baseProfile="basic" id="Ebene_1"
	 xmlns="http://www.w3.org/2000/svg" xmlns:xlink="http://www.w3.org/1999/xlink" x="0px" y="0px" width="0.47244in"
	 height="0.47244in" viewBox="0 0 34.016 34.016" xml:space="preserve">
<polygon points="34.016,31.031 34.016,2.984 31.031,0 2.984,0 0,2.984 0,31.031 2.984,34.016 31.032,34.016 "/>
	<g>
		<path fill="#999999" d="M31.792,29.385c0,1.328-1.08,2.412-2.411,2.412H4.633c-1.326,0-2.409-1.084-2.409-2.412V4.632
			c0-1.326,1.083-2.409,2.409-2.409h24.752c1.327,0,2.407,1.083,2.407,2.409V29.385L31.792,29.385z"/>
		<circle cx="6.529" cy="6.53" r="2.562"/>
		<circle cx="27.559" cy="6.576" r="2.561"/>
		<circle cx="27.513" cy="27.604" r="2.562"/>
		<circle cx="6.484" cy="27.556" r="2.562"/>
		<circle fill="#3F3F3F" cx="17.006" cy="17.009" r="8.624"/>
		<circle fill="#2D2D2D" cx="17.006" cy="17.009" r="8.624"/>
		<circle opacity="0.6" cx="17.157" cy="18.033" r="7.588"/>
		<circle fill="#313131" cx="17.018" cy="17.06" r="7.395"/>
		<path opacity="0.5" fill="#FFFFFF" d="M6.198,6.396C6.25,6.277,6.341,6.183,6.474,6.162L6.22,4.546
			C6.123,4.562,6.021,4.549,5.926,4.58L5.924,4.572C5.326,4.755,4.881,5.201,4.65,5.769L6.198,6.396z"/>
		<path opacity="0.5" fill="#FFFFFF" d="M27.225,6.441c0.05-0.123,0.142-0.216,0.275-0.237l-0.249-1.614
			c-0.102,0.018-0.199,0.003-0.298,0.031l-0.004-0.009c-0.591,0.183-1.039,0.628-1.268,1.197L27.225,6.441z"/>
		<path opacity="0.5" fill="#FFFFFF" d="M27.182,27.469c0.051-0.125,0.141-0.217,0.275-0.238l-0.252-1.613
			c-0.098,0.018-0.199,0.004-0.294,0.033l-0.004-0.014c-0.595,0.184-1.043,0.629-1.269,1.199L27.182,27.469z"/>
		<path opacity="0.5" fill="#FFFFFF" d="M6.152,27.424c0.051-0.123,0.143-0.213,0.277-0.236l-0.254-1.615
			c-0.098,0.023-0.199,0.004-0.295,0.033l-0.003-0.008c-0.597,0.18-1.042,0.627-1.272,1.197L6.152,27.424z"/>
		<path opacity="0.6" fill="#FFFFFF" d="M19.664,10.167c-0.572-0.223-1.175-0.383-1.813-0.457c-1.589-0.176-3.108,0.175-4.407,0.895
			l-0.161,0.421c1.45-0.775,3.14-1.136,4.898-0.938c0.542,0.063,1.068,0.184,1.567,0.344L19.664,10.167z"/>
	</g>
</svg>
